X:329
T:Morven's Waltz    
C:Alex Lawson (?)
S:Copied sheet from George ?----?, Edinburgh
O:Scotland
Z:Nigel Gatherer
L:1/4
M:3/4
K:G
B2 A|G2 D|E G2|D3|B2 A|G2 B|
d B2|A3|B2 A|G2 D|E G2|
D3|D2 E|G2 B|A3 G3|
B2 d|d2 d|e g2|g3|d2 B|
B2 G|B A2|A3|B2 d|d2 d|
e g2|g2 e|d2 B|A2 d|B G2|G3|]
<end>
<start>
